src/assets/duotone/Arrow.svg

<svg width="24" height="24" viewBox="0 0 24 24"  xmlns="http://www.w3.org/2000/svg">
<path opacity="0.4" d="M12 22.75C11.59 22.75 11.25 22.41 11.25 22V20C11.25 19.59 11.59 19.25 12 19.25C12.41 19.25 12.75 19.59 12.75 20V22C12.75 22.41 12.41 22.75 12 22.75Z" />
<path opacity="0.4" d="M12 18.75C11.59 18.75 11.25 18.41 11.25 18V16C11.25 15.59 11.59 15.25 12 15.25C12.41 15.25 12.75 15.59 12.75 16V18C12.75 18.41 12.41 18.75 12 18.75Z" />
<path d="M12 14.75C11.59 14.75 11.25 14.41 11.25 14V11C11.25 6.73 14.73 3.25 19 3.25H22C22.41 3.25 22.75 3.59 22.75 4C22.75 4.41 22.41 4.75 22 4.75H19C15.55 4.75 12.75 7.55 12.75 11V14C12.75 14.41 12.41 14.75 12 14.75Z" />
<path d="M12 14.75C11.59 14.75 11.25 14.41 11.25 14V11C11.25 7.55 8.45 4.75 5 4.75H2C1.59 4.75 1.25 4.41 1.25 4C1.25 3.59 1.59 3.25 2 3.25H5C9.27 3.25 12.75 6.73 12.75 11V14C12.75 14.41 12.41 14.75 12 14.75Z" />
<path d="M3.99997 6.74994C3.80997 6.74994 3.61994 6.67994 3.46994 6.52994L1.46994 4.52994C1.17994 4.23994 1.17994 3.75994 1.46994 3.46994L3.46994 1.46994C3.75994 1.17994 4.24 1.17994 4.53 1.46994C4.82 1.75994 4.82 2.23994 4.53 2.52994L3.05997 3.99994L4.53 5.46994C4.82 5.75994 4.82 6.23994 4.53 6.52994C4.38 6.67994 4.18997 6.74994 3.99997 6.74994Z" />
<path d="M20 6.74994C19.81 6.74994 19.6199 6.67994 19.4699 6.52994C19.1799 6.23994 19.1799 5.75994 19.4699 5.46994L20.94 3.99994L19.4699 2.52994C19.1799 2.23994 19.1799 1.75994 19.4699 1.46994C19.7599 1.17994 20.24 1.17994 20.53 1.46994L22.53 3.46994C22.82 3.75994 22.82 4.23994 22.53 4.52994L20.53 6.52994C20.38 6.67994 20.19 6.74994 20 6.74994Z" />
</svg>

<?xml version="1.0" encoding="UTF-8"?>
<svg width="24" height="24" viewBox="0 0 24 24" xmlns="http://www.w3.org/2000/svg">
 <path d="m12 22.75c-0.41 0-0.75-0.34-0.75-0.75v-2c0-0.41 0.34-0.75 0.75-0.75s0.75 0.34 0.75 0.75v2c0 0.41-0.34 0.75-0.75 0.75z" opacity=".4"/>
 <path d="m12 18.75c-0.41 0-0.75-0.34-0.75-0.75v-2c0-0.41 0.34-0.75 0.75-0.75s0.75 0.34 0.75 0.75v2c0 0.41-0.34 0.75-0.75 0.75z" opacity=".4"/>
 <path d="m12 14.75c-0.41 0-0.75-0.34-0.75-0.75v-3c0-4.27 3.48-7.75 7.75-7.75h3c0.41 0 0.75 0.34 0.75 0.75s-0.34 0.75-0.75 0.75h-3c-3.45 0-6.25 2.8-6.25 6.25v3c0 0.41-0.34 0.75-0.75 0.75z"/>
 <path d="m12 14.75c-0.41 0-0.75-0.34-0.75-0.75v-3c0-3.45-2.8-6.25-6.25-6.25h-3c-0.41 0-0.75-0.34-0.75-0.75s0.34-0.75 0.75-0.75h3c4.27 0 7.75 3.48 7.75 7.75v3c0 0.41-0.34 0.75-0.75 0.75z"/>
 <path d="m4 6.7499c-0.19 0-0.38003-0.07-0.53003-0.22l-2-2c-0.29-0.29-0.29-0.77 0-1.06l2-2c0.29-0.29 0.77006-0.29 1.0601 0s0.29 0.77 0 1.06l-1.47 1.47 1.47 1.47c0.29 0.29 0.29 0.77 0 1.06-0.15 0.15-0.34003 0.22-0.53003 0.22z"/>
 <path d="m20 6.7499c-0.19 0-0.3801-0.07-0.5301-0.22-0.29-0.29-0.29-0.77 0-1.06l1.4701-1.47-1.4701-1.47c-0.29-0.29-0.29-0.77 0-1.06s0.7701-0.29 1.0601 0l2 2c0.29 0.29 0.29 0.77 0 1.06l-2 2c-0.15 0.15-0.34 0.22-0.53 0.22z"/>
</svg>
